icons/1_Primary/SoFi.svg

<svg width="1024" height="1024" viewBox="0 0 1024 1024" fill="none" xmlns="http://www.w3.org/2000/svg">
<g clip-path="url(#clip0_2_3495)">
<path d="M512 1024C794.77 1024 1024 794.77 1024 512C1024 229.23 794.77 0 512 0C229.23 0 0 229.23 0 512C0 794.77 229.23 1024 512 1024Z" fill="#9ABEFF"/>
<path d="M599.73 545.27C606.28 557.306 616.252 567.129 628.385 573.498C640.517 579.867 654.266 582.496 667.892 581.052C681.519 579.608 694.411 574.156 704.939 565.386C715.468 556.616 723.159 544.921 727.042 531.779C730.924 518.638 730.823 504.641 726.75 491.557C722.678 478.473 714.818 466.891 704.164 458.274C693.51 449.656 680.54 444.392 666.894 443.145C653.248 441.899 639.539 444.726 627.5 451.27C619.503 455.617 612.44 461.497 606.716 468.574C600.992 475.652 596.719 483.787 594.14 492.517C591.561 501.246 590.727 510.398 591.686 519.45C592.646 528.501 595.379 537.275 599.73 545.27ZM599.63 693.75C606.18 705.786 616.152 715.609 628.285 721.978C640.417 728.347 654.166 730.976 667.792 729.532C681.419 728.088 694.311 722.636 704.839 713.866C715.368 705.096 723.059 693.4 726.942 680.259C730.824 667.118 730.722 653.121 726.65 640.037C722.578 626.953 714.718 615.371 704.064 606.754C693.41 598.136 680.44 592.872 666.794 591.625C653.148 590.379 639.439 593.206 627.4 599.75C619.403 604.097 612.34 609.977 606.616 617.054C600.892 624.132 596.619 632.267 594.04 640.997C591.461 649.726 590.627 658.878 591.586 667.93C592.546 676.981 595.279 685.755 599.63 693.75ZM512.24 462.85C484.52 462.85 460.77 484.63 462.75 512.34C462.75 526.2 466.75 538.08 476.61 547.97C486.51 555.89 498.39 561.83 512.24 561.83C518.757 561.896 525.222 560.66 531.256 558.196C537.29 555.732 542.772 552.09 547.381 547.481C551.989 542.872 555.632 537.39 558.096 531.356C560.56 525.322 561.795 518.857 561.73 512.34C561.73 498.48 557.73 486.6 547.87 476.71C537.97 468.79 526.09 462.85 512.24 462.85ZM581.53 512.34C581.53 549.95 549.86 581.63 512.24 581.63C474.62 581.63 443 550 443 512.34C443 474.68 474.67 443.05 512.29 443.05C549.91 443.05 581.53 474.73 581.53 512.34ZM660.72 314.34C633 314.34 609.25 336.12 611.23 363.83C611.23 377.69 615.23 389.57 625.09 399.46C634.99 407.38 646.87 413.32 660.72 413.32C667.237 413.386 673.702 412.15 679.736 409.686C685.77 407.222 691.252 403.58 695.861 398.971C700.469 394.362 704.112 388.88 706.576 382.846C709.04 376.812 710.275 370.347 710.21 363.83C710.21 349.97 706.21 338.09 696.35 328.2C686.45 320.28 674.57 314.34 660.72 314.34ZM730 363.87C730 401.48 698.33 433.16 660.71 433.16C623.09 433.16 591.42 401.49 591.42 363.87C591.42 326.25 623.09 294.58 660.71 294.58C698.33 294.58 730 326.26 730 363.87ZM335.24 575.14C347.767 580.7 361.662 582.419 375.167 580.081C388.672 577.743 401.18 571.452 411.109 562.005C421.038 552.557 427.943 540.378 430.949 527.006C433.956 513.634 432.929 499.671 427.999 486.882C423.069 474.094 414.457 463.055 403.252 455.162C392.048 447.268 378.754 442.875 365.053 442.538C351.351 442.2 337.857 445.934 326.278 453.266C314.698 460.598 305.554 471.2 300 483.73C292.556 500.526 292.086 519.59 298.695 536.731C305.303 553.873 318.448 567.688 335.24 575.14ZM484 426.73C496.53 432.281 510.425 433.991 523.927 431.645C537.429 429.299 549.933 423.002 559.856 413.549C569.779 404.097 576.676 391.914 579.675 378.542C582.674 365.169 581.641 351.208 576.705 338.423C571.769 325.638 563.153 314.604 551.946 306.716C540.739 298.828 527.445 294.441 513.744 294.109C500.044 293.776 486.552 297.515 474.976 304.85C463.4 312.186 454.259 322.789 448.71 335.32C441.269 352.122 440.807 371.191 447.425 388.333C454.043 405.476 467.199 419.287 484 426.73ZM335.41 426.55C347.94 432.101 361.835 433.811 375.337 431.465C388.839 429.119 401.343 422.822 411.266 413.369C421.189 403.917 428.086 391.734 431.085 378.362C434.084 364.989 433.051 351.028 428.115 338.243C423.179 325.458 414.563 314.424 403.356 306.536C392.149 298.648 378.855 294.261 365.154 293.929C351.454 293.596 337.962 297.335 326.386 304.67C314.81 312.006 305.669 322.609 300.12 335.14C296.436 343.461 294.427 352.425 294.208 361.522C293.989 370.619 295.564 379.67 298.843 388.158C302.122 396.647 307.04 404.406 313.318 410.993C319.596 417.58 327.109 422.867 335.43 426.55H335.41ZM483.65 723.92C496.18 729.471 510.075 731.181 523.577 728.835C537.079 726.489 549.583 720.192 559.506 710.739C569.429 701.287 576.326 689.104 579.325 675.732C582.324 662.359 581.291 648.398 576.355 635.613C571.419 622.828 562.803 611.794 551.596 603.906C540.389 596.018 527.095 591.631 513.394 591.299C499.694 590.966 486.202 594.705 474.626 602.04C463.05 609.376 453.909 619.979 448.36 632.51C440.919 649.312 440.457 668.381 447.075 685.523C453.693 702.666 466.849 716.477 483.65 723.92ZM363.77 611.32C336.05 611.32 312.3 633.1 314.28 660.81C314.28 673.938 319.495 686.529 328.778 695.812C338.061 705.095 350.652 710.31 363.78 710.31C376.908 710.31 389.499 705.095 398.782 695.812C408.065 686.529 413.28 673.938 413.28 660.81C413.28 646.95 409.28 635.07 399.42 625.18C389.52 617.26 377.64 611.32 363.79 611.32M433.08 660.81C433.08 698.42 401.41 730.1 363.79 730.1C326.17 730.1 294.5 698.43 294.5 660.81C294.5 623.19 326.17 591.52 363.79 591.52C401.41 591.52 433.05 623.2 433.05 660.82L433.08 660.81Z" fill="white"/>
</g>
<defs>
<clipPath id="clip0_2_3495">
<rect width="1024" height="1024" fill="white"/>
</clipPath>
</defs>
</svg>

<svg xmlns="http://www.w3.org/2000/svg" width="1024" height="1024" fill="none">
   <g clip-path="url(#a)">
      <path fill="#9ABEFF" d="M512 1024c282.77 0 512-229.23 512-512S794.77 0 512 0 0 229.23 0 512s229.23 512 512 512Z"/>
      <path fill="#fff" d="M599.73 545.27a69.285 69.285 0 0 0 68.162 35.782 69.29 69.29 0 1 0-68.162-35.782Zm-.1 148.48a69.285 69.285 0 0 0 68.162 35.782 69.29 69.29 0 1 0-68.162-35.782Zm-87.39-230.9c-27.72 0-51.47 21.78-49.49 49.49 0 13.86 4 25.74 13.86 35.63 9.9 7.92 21.78 13.86 35.63 13.86a49 49 0 0 0 49.49-49.49c0-13.86-4-25.74-13.86-35.63-9.9-7.92-21.78-13.86-35.63-13.86Zm69.29 49.49c0 37.61-31.67 69.29-69.29 69.29-37.62 0-69.24-31.63-69.24-69.29 0-37.66 31.67-69.29 69.29-69.29 37.62 0 69.24 31.68 69.24 69.29Zm79.19-198c-27.72 0-51.47 21.78-49.49 49.49 0 13.86 4 25.74 13.86 35.63 9.9 7.92 21.78 13.86 35.63 13.86a49 49 0 0 0 49.49-49.49c0-13.86-4-25.74-13.86-35.63-9.9-7.92-21.78-13.86-35.63-13.86ZM730 363.87c0 37.61-31.67 69.29-69.29 69.29-37.62 0-69.29-31.67-69.29-69.29 0-37.62 31.67-69.29 69.29-69.29 37.62 0 69.29 31.68 69.29 69.29ZM335.24 575.14a69.286 69.286 0 0 0 75.869-13.135 69.29 69.29 0 1 0-75.869 13.135ZM484 426.73a69.29 69.29 0 1 0 56.13-126.704A69.29 69.29 0 0 0 484 426.73Zm-148.59-.18a69.29 69.29 0 1 0-35.29-91.41 69.285 69.285 0 0 0 13.198 75.853 69.288 69.288 0 0 0 22.112 15.557h-.02Zm148.24 297.37a69.29 69.29 0 1 0 56.13-126.704 69.29 69.29 0 0 0-56.13 126.704Zm-119.88-112.6c-27.72 0-51.47 21.78-49.49 49.49a49.5 49.5 0 1 0 99 0c0-13.86-4-25.74-13.86-35.63-9.9-7.92-21.78-13.86-35.63-13.86m69.29 49.49c0 37.61-31.67 69.29-69.29 69.29-37.62 0-69.29-31.67-69.29-69.29 0-37.62 31.67-69.29 69.29-69.29 37.62 0 69.26 31.68 69.26 69.3l.03-.01Z"/>
   </g>
   <defs>
      <clipPath id="a">
         <path fill="#fff" d="M0 0h1024v1024H0z"/>
      </clipPath>
   </defs>
</svg>
